icon-themes/sifr_svg/cmd/sc_fontworkshapetype.fontwork-arch-down-pour.svg

<svg viewBox="0 0 16 16" xmlns="http://www.w3.org/2000/svg"><g fill="#555753"><path d="m8 13c-4.418278 0-8-3.581722-8-8v-1h5v1c0 1.656854 1.3431458 3 3 3s3-1.343146 3-3v-1h5v1c0 4.418278-3.581722 8-8 8zm0-2c2.981747 0 5.313942-2.1669145 5.800781-5h-1.005859c-.482976 2.2511794-2.410816 4-4.794922 4-2.3841058 0-4.3119459-1.7488206-4.7949219-4h-1.0058593c.4868396 2.8330855 2.8190341 5 5.8007812 5z"/><path d="m4 11-3-4 2-2 3 4h4l2.508475-4h2.491525l-2 4-2 2z" opacity=".35"/></g></svg>

<svg xmlns="http://www.w3.org/2000/svg" viewBox="0 0 16 16">
  <path
     style="fill:#555753"
     d="M 8,13 C 3.581722,13 0,9.418278 0,5 V 4 H 5 V 5 C 5,6.656854 6.3431458,8 8,8 9.6568542,8 11,6.656854 11,5 V 4 h 5 v 1 c 0,4.418278 -3.581722,8 -8,8 z m 0,-2 c 2.981747,0 5.313942,-2.1669145 5.800781,-5 H 12.794922 C 12.311946,8.2511794 10.384106,10 8,10 5.6158942,10 3.6880541,8.2511794 3.2050781,6 H 2.1992188 C 2.6860584,8.8330855 5.0182529,11 8,11 Z"
     />
  <path
     style="opacity:0.35;fill:#555753"
     d="M 4,11 1,7 3,5 6,9 h 4 L 12.508475,5 H 15 l -2,4 -2,2 z"
     />
</svg>
